X:1
T: Miss Anne Gordon
C:William Marshall
R:Strathspey
Q: 128
K:F
M:4/4
L:1/16
|:A2|FFF2 F3d cF3 Af3|FFF2 F3G AG3 D3E|FFF2 F3d cF3 Ag3|fd3 c3A A3G D2A2|
FFF2 F3d cF3 Af3|FFF2 F3G AG3 D3E|FFF2 F3d cF3 Ag3|fd3 c3A A3G D2e2|
fc3 fa3 cf3 Aa3|fc3 f3a g4 d3e|fc3 fa3 c3f a3g|fA3 AAA2 G4 D2e2|
fc3 fa3 cf3 Aa3|fc3 f3a g4 d3e|f3a g3b af3 g3e|fA3 A3G F4 F2:|
